X: 40
T: No_140_When_I_Think_of_Him.krn
N: Derived from No_140_When_I_Think_of_Him.krn
%%abc-version 2.0
%%abcx-abcm2ps-target-version 5.9.1 (29 Sep 2008)
%%abc-creator hum2abc beta
%%abcx-conversion-date 2019/03/15 08:29:13
%%humdrum-veritas 278845265
%%humdrum-veritas-data 1301053193
%%linebreak <none>
%%barnumbers 0
L: 1/8
M: 2/4
K: A clef=bass
CC [I:setbarnb 1]| 
C3C | 
CC ^DE ||  
[M:3/4]C4CC ||  
[M:2/4]C3C | 
B,A, B,A, ||  
[M:3/4]F,4F,F, ||  
[M:2/4]F,3F, | 
F,F, G,A, | 
F,4 | 
A,A, CC ||  
[M:3/4]B,B, B,A, (B,3/A,/) ||  
[M:2/4]F,4 | 
A,7/C/ | 
F,3F, | 
F,C, F,F, | 
F,3C, ||  
[M:3/4]F,F,(C,3B,,) | 
B,,2A,,F,, C,C, ||  
[M:2/4]C,3C, | 
B,,A,, B,,A,, | 
F,,4 |]  



